src/Resource_Files/fluent/git-manage.svg

<svg clip-rule="evenodd" fill-rule="evenodd" stroke-linejoin="round" stroke-miterlimit="2" viewBox="0 0 16 16" xmlns="http://www.w3.org/2000/svg"><path d="m1.911 7.383c.369-1.142.977-2.191 1.78-3.079.136-.151.349-.204.539-.136l1.919.686c.52.186 1.092-.085 1.278-.605.018-.051.032-.104.042-.157l.365-2.006c.037-.2.19-.357.388-.4.58-.123 1.175-.186 1.778-.186.602 0 1.197.063 1.777.186.198.042.351.2.388.399l.366 2.007c.099.543.62.903 1.163.804.054-.01.106-.024.157-.042l1.919-.686c.19-.068.403-.015.539.136.803.888 1.411 1.937 1.78 3.079.063.192.002.404-.152.535l-1.555 1.32c-.421.357-.472.988-.115 1.409.035.042.074.08.115.115l1.555 1.32c.154.131.215.343.152.535-.369 1.142-.977 2.191-1.78 3.079-.136.151-.349.204-.539.136l-1.919-.686c-.52-.186-1.092.085-1.278.605-.018.051-.032.104-.042.157l-.366 2.007c-.037.199-.19.357-.388.399-.58.123-1.175.186-1.777.186-.603 0-1.198-.063-1.778-.186-.198-.043-.351-.2-.388-.4l-.365-2.006c-.099-.543-.62-.903-1.163-.804-.054.01-.106.024-.157.042l-1.919.686c-.19.068-.403.015-.539-.136-.803-.888-1.411-1.937-1.78-3.079-.063-.192-.002-.404.152-.535l1.555-1.32c.421-.357.472-.988.115-1.409-.035-.042-.074-.08-.115-.115l-1.555-1.32c-.154-.131-.215-.343-.152-.535zm1.06-.006 1.294 1.098c.083.071.16.148.23.23.715.842.612 2.105-.23 2.82l-1.294 1.098c.292.782.714 1.509 1.245 2.152l1.596-.571c.102-.036.208-.064.314-.084 1.087-.198 2.129.522 2.327 1.609l.304 1.669c.408.068.823.102 1.243.102s.835-.034 1.242-.102l.305-1.669c.02-.107.048-.212.084-.314.372-1.04 1.517-1.582 2.557-1.211l1.596.571c.531-.643.953-1.37 1.245-2.152l-1.294-1.098c-.083-.071-.16-.148-.23-.23-.715-.842-.612-2.105.23-2.82l1.294-1.098c-.292-.782-.714-1.509-1.245-2.152l-1.596.571c-.102.036-.208.064-.314.084-1.087.198-2.129-.522-2.327-1.609l-.305-1.669c-.407-.068-.822-.102-1.242-.102s-.835.034-1.243.102l-.304 1.669c-.02.107-.048.212-.084.314-.372 1.04-1.517 1.582-2.557 1.211l-1.596-.571c-.531.643-.953 1.37-1.245 2.152zm4.529 2.623c0-1.381 1.119-2.5 2.5-2.5s2.5 1.119 2.5 2.5-1.119 2.5-2.5 2.5-2.5-1.119-2.5-2.5zm1 0c0 .828.672 1.5 1.5 1.5s1.5-.672 1.5-1.5-.672-1.5-1.5-1.5-1.5.672-1.5 1.5z" fill="#1abc9c" fill-rule="nonzero" transform="matrix(.941176 0 0 .941176 -1.41176 -1.41176)"/></svg>

<?xml version="1.0" encoding="UTF-8" standalone="no"?>
<!DOCTYPE svg PUBLIC "-//W3C//DTD SVG 1.1//EN" "http://www.w3.org/Graphics/SVG/1.1/DTD/svg11.dtd">
<svg width="100%" height="100%" viewBox="0 0 16 16" version="1.1" xmlns="http://www.w3.org/2000/svg" xmlns:xlink="http://www.w3.org/1999/xlink" xml:space="preserve" xmlns:serif="http://www.serif.com/" style="fill-rule:evenodd;clip-rule:evenodd;stroke-linejoin:round;stroke-miterlimit:2;">
    <g id="manage" transform="matrix(0.941176,0,0,0.941176,-1.41176,-1.41176)">
        <path d="M1.911,7.383C2.28,6.241 2.888,5.192 3.691,4.304C3.827,4.153 4.04,4.1 4.23,4.168L6.149,4.854C6.669,5.04 7.241,4.769 7.427,4.249C7.445,4.198 7.459,4.145 7.469,4.092L7.834,2.086C7.871,1.886 8.024,1.729 8.222,1.686C8.802,1.563 9.397,1.5 10,1.5C10.602,1.5 11.197,1.563 11.777,1.686C11.975,1.728 12.128,1.886 12.165,2.085L12.531,4.092C12.63,4.635 13.151,4.995 13.694,4.896C13.748,4.886 13.8,4.872 13.851,4.854L15.77,4.168C15.96,4.1 16.173,4.153 16.309,4.304C17.112,5.192 17.72,6.241 18.089,7.383C18.152,7.575 18.091,7.787 17.937,7.918L16.382,9.238C15.961,9.595 15.91,10.226 16.267,10.647C16.302,10.689 16.341,10.727 16.382,10.762L17.937,12.082C18.091,12.213 18.152,12.425 18.089,12.617C17.72,13.759 17.112,14.808 16.309,15.696C16.173,15.847 15.96,15.9 15.77,15.832L13.851,15.146C13.331,14.96 12.759,15.231 12.573,15.751C12.555,15.802 12.541,15.855 12.531,15.908L12.165,17.915C12.128,18.114 11.975,18.272 11.777,18.314C11.197,18.437 10.602,18.5 10,18.5C9.397,18.5 8.802,18.437 8.222,18.314C8.024,18.271 7.871,18.114 7.834,17.914L7.469,15.908C7.37,15.365 6.849,15.005 6.306,15.104C6.252,15.114 6.2,15.128 6.149,15.146L4.23,15.832C4.04,15.9 3.827,15.847 3.691,15.696C2.888,14.808 2.28,13.759 1.911,12.617C1.848,12.425 1.909,12.213 2.063,12.082L3.618,10.762C4.039,10.405 4.09,9.774 3.733,9.353C3.698,9.311 3.659,9.273 3.618,9.238L2.063,7.918C1.909,7.787 1.848,7.575 1.911,7.383ZM2.971,7.377L4.265,8.475C4.348,8.546 4.425,8.623 4.495,8.705C5.21,9.547 5.107,10.81 4.265,11.525L2.971,12.623C3.263,13.405 3.685,14.132 4.216,14.775L5.812,14.204C5.914,14.168 6.02,14.14 6.126,14.12C7.213,13.922 8.255,14.642 8.453,15.729L8.757,17.398C9.165,17.466 9.58,17.5 10,17.5C10.42,17.5 10.835,17.466 11.242,17.398L11.547,15.729C11.567,15.622 11.595,15.517 11.631,15.415C12.003,14.375 13.148,13.833 14.188,14.204L15.784,14.775C16.315,14.132 16.737,13.405 17.029,12.623L15.735,11.525C15.652,11.454 15.575,11.377 15.505,11.295C14.79,10.453 14.893,9.19 15.735,8.475L17.029,7.377C16.737,6.595 16.315,5.868 15.784,5.225L14.188,5.796C14.086,5.832 13.98,5.86 13.874,5.88C12.787,6.078 11.745,5.358 11.547,4.271L11.242,2.602C10.835,2.534 10.42,2.5 10,2.5C9.58,2.5 9.165,2.534 8.757,2.602L8.453,4.271C8.433,4.378 8.405,4.483 8.369,4.585C7.997,5.625 6.852,6.167 5.812,5.796L4.216,5.225C3.685,5.868 3.263,6.595 2.971,7.377ZM7.5,10C7.5,8.619 8.619,7.5 10,7.5C11.381,7.5 12.5,8.619 12.5,10C12.5,11.381 11.381,12.5 10,12.5C8.619,12.5 7.5,11.381 7.5,10ZM8.5,10C8.5,10.828 9.172,11.5 10,11.5C10.828,11.5 11.5,10.828 11.5,10C11.5,9.172 10.828,8.5 10,8.5C9.172,8.5 8.5,9.172 8.5,10Z" style="fill:rgb(26,188,156);fill-rule:nonzero;"/>
    </g>
</svg>
